assets/1. P-Z/Shuffle tracks button/Color/Shuffle.Tracks.Button-color.svg

<svg width="100%" height="100%" viewBox="0 0 32 32" fill="none" xmlns="http://www.w3.org/2000/svg">
<g filter="url(#filter0_ii_18590_1321)">
<rect x="1.85529" y="1.5625" width="27.875" height="27.875" rx="3.6" fill="url(#paint0_linear_18590_1321)"/>
<rect x="1.85529" y="1.5625" width="27.875" height="27.875" rx="3.6" fill="url(#paint1_radial_18590_1321)"/>
</g>
<g filter="url(#filter1_f_18590_1321)">
<path d="M28.0428 4.0625V26.9375" stroke="url(#paint2_linear_18590_1321)" stroke-width="1.5" stroke-linecap="round"/>
</g>
<g filter="url(#filter2_f_18590_1321)">
<path d="M5.31915 3.375H27.1004" stroke="url(#paint3_linear_18590_1321)" stroke-width="1.5" stroke-linecap="round"/>
</g>
<g filter="url(#filter3_f_18590_1321)">
<path d="M25.6338 11.3493C25.8285 11.1541 25.8285 10.8381 25.6338 10.643L22.6214 7.62345C22.3066 7.3079 21.7674 7.53085 21.7674 7.97659V9.40393C21.7674 9.45916 21.7226 9.50393 21.6674 9.50393H20.1667C20.0027 9.50393 19.702 9.52795 19.4417 9.54994C17.4914 9.71471 15.6875 10.803 14.7497 12.6211C14.6585 12.7979 14.5673 12.9758 14.4759 13.154L14.4753 13.1553C13.896 14.2851 13.3089 15.4302 12.6701 16.4072C11.8858 17.6068 11.2564 18.1728 10.8288 18.3138C10.5245 18.4141 10.0372 18.4751 9.50501 18.4983C9.11351 18.5153 8.80567 18.5099 8.59284 18.5062C8.52259 18.505 8.46262 18.5039 8.41349 18.5039H6.29865C6.02251 18.5039 5.79865 18.7278 5.79865 19.0039V21.0039C5.79865 21.2801 6.02251 21.5039 6.29865 21.5039H8.41345L8.41598 21.5039L8.42398 21.504L8.452 21.5044L8.54224 21.506C8.61495 21.5073 8.70935 21.5088 8.81916 21.5095C9.03829 21.5109 9.32197 21.5091 9.63557 21.4954C10.2282 21.4696 11.0563 21.3977 11.7685 21.1628C13.2633 20.6698 14.3779 19.2774 15.1811 18.0489C15.9142 16.9275 16.5823 15.623 17.1548 14.505C17.2442 14.3305 17.3313 14.1605 17.4159 13.9964C17.8406 13.173 18.6829 12.6247 19.6943 12.5393C19.8354 12.5274 19.9553 12.5179 20.0473 12.5115C20.0935 12.5083 20.1287 12.5062 20.1539 12.5049L20.1759 12.5039H21.6674C21.7226 12.5039 21.7674 12.5487 21.7674 12.6039V14.0157C21.7674 14.4614 22.3066 14.6843 22.6214 14.3688L25.6338 11.3493Z" fill="#579FFF"/>
<path d="M19.4417 21.4639C19.702 21.4859 20.0027 21.5099 20.1667 21.5099H21.6674C21.7226 21.5099 21.7674 21.5547 21.7674 21.6099V23.0235C21.7674 23.4692 22.3066 23.6922 22.6214 23.3766L25.6338 20.3571C25.8285 20.1619 25.8285 19.846 25.6338 19.6508L22.6214 16.6313C22.3066 16.3157 21.7674 16.5387 21.7674 16.9844V18.4099C21.7674 18.4651 21.7226 18.5099 21.6674 18.5099H20.1759L20.1539 18.5089C20.1287 18.5076 20.0934 18.5055 20.0473 18.5023C19.9553 18.4959 19.8354 18.4865 19.6943 18.4746C18.8428 18.4026 18.1389 18.0374 17.6841 17.4324C17.5686 17.2787 17.3249 17.2682 17.2207 17.4298L15.836 19.5786C15.7727 19.6768 15.7855 19.8062 15.8702 19.8866C16.8376 20.8045 18.1053 21.351 19.4417 21.4639Z" fill="#579FFF"/>
<path d="M9.43059 9.50393C9.5946 9.50393 9.89529 9.52795 10.1556 9.54994C11.5676 9.66923 12.7621 10.1449 13.7268 11.1401C13.8675 11.2852 13.8929 11.5039 13.8005 11.6836C13.5437 12.1828 13.0102 13.2025 12.5946 13.881C12.4562 14.1071 12.1389 14.0833 12.0174 13.8477C11.5927 13.0243 10.9144 12.6247 9.903 12.5393C9.76192 12.5274 9.64201 12.5179 9.54995 12.5115C9.50384 12.5083 9.46858 12.5062 9.44335 12.5049L9.42137 12.5039H6.29864C6.0225 12.5039 5.79865 12.2801 5.79865 12.0039V10.0039C5.79865 9.72779 6.0225 9.50393 6.29865 9.50393H9.43059Z" fill="#579FFF"/>
</g>
<g filter="url(#filter4_ii_18590_1321)">
<path d="M25.6338 11.3493C25.8285 11.1541 25.8285 10.8381 25.6338 10.643L22.6214 7.62345C22.3066 7.3079 21.7674 7.53085 21.7674 7.97659V9.40393C21.7674 9.45916 21.7226 9.50393 21.6674 9.50393H20.1667C20.0027 9.50393 19.702 9.52795 19.4417 9.54994C17.4914 9.71471 15.6875 10.803 14.7497 12.6211C14.6585 12.7979 14.5673 12.9758 14.4759 13.154L14.4753 13.1553C13.896 14.2851 13.3089 15.4302 12.6701 16.4072C11.8858 17.6068 11.2564 18.1728 10.8288 18.3138C10.5245 18.4141 10.0372 18.4751 9.50501 18.4983C9.11351 18.5153 8.80567 18.5099 8.59284 18.5062C8.52259 18.505 8.46262 18.5039 8.41349 18.5039H6.29865C6.02251 18.5039 5.79865 18.7278 5.79865 19.0039V21.0039C5.79865 21.2801 6.02251 21.5039 6.29865 21.5039H8.41345L8.41598 21.5039L8.42398 21.504L8.452 21.5044L8.54224 21.506C8.61495 21.5073 8.70935 21.5088 8.81916 21.5095C9.03829 21.5109 9.32197 21.5091 9.63557 21.4954C10.2282 21.4696 11.0563 21.3977 11.7685 21.1628C13.2633 20.6698 14.3779 19.2774 15.1811 18.0489C15.9142 16.9275 16.5823 15.623 17.1548 14.505C17.2442 14.3305 17.3313 14.1605 17.4159 13.9964C17.8406 13.173 18.6829 12.6247 19.6943 12.5393C19.8354 12.5274 19.9553 12.5179 20.0473 12.5115C20.0935 12.5083 20.1287 12.5062 20.1539 12.5049L20.1759 12.5039H21.6674C21.7226 12.5039 21.7674 12.5487 21.7674 12.6039V14.0157C21.7674 14.4614 22.3066 14.6843 22.6214 14.3688L25.6338 11.3493Z" fill="#FCF2FF"/>
<path d="M19.4417 21.4639C19.702 21.4859 20.0027 21.5099 20.1667 21.5099H21.6674C21.7226 21.5099 21.7674 21.5547 21.7674 21.6099V23.0235C21.7674 23.4692 22.3066 23.6922 22.6214 23.3766L25.6338 20.3571C25.8285 20.1619 25.8285 19.846 25.6338 19.6508L22.6214 16.6313C22.3066 16.3157 21.7674 16.5387 21.7674 16.9844V18.4099C21.7674 18.4651 21.7226 18.5099 21.6674 18.5099H20.1759L20.1539 18.5089C20.1287 18.5076 20.0934 18.5055 20.0473 18.5023C19.9553 18.4959 19.8354 18.4865 19.6943 18.4746C18.8428 18.4026 18.1389 18.0374 17.6841 17.4324C17.5686 17.2787 17.3249 17.2682 17.2207 17.4298L15.836 19.5786C15.7727 19.6768 15.7855 19.8062 15.8702 19.8866C16.8376 20.8045 18.1053 21.351 19.4417 21.4639Z" fill="#FCF2FF"/>
<path d="M9.43059 9.50393C9.5946 9.50393 9.89529 9.52795 10.1556 9.54994C11.5676 9.66923 12.7621 10.1449 13.7268 11.1401C13.8675 11.2852 13.8929 11.5039 13.8005 11.6836C13.5437 12.1828 13.0102 13.2025 12.5946 13.881C12.4562 14.1071 12.1389 14.0833 12.0174 13.8477C11.5927 13.0243 10.9144 12.6247 9.903 12.5393C9.76192 12.5274 9.64201 12.5179 9.54995 12.5115C9.50384 12.5083 9.46858 12.5062 9.44335 12.5049L9.42137 12.5039H6.29864C6.0225 12.5039 5.79865 12.2801 5.79865 12.0039V10.0039C5.79865 9.72779 6.0225 9.50393 6.29865 9.50393H9.43059Z" fill="#FCF2FF"/>
</g>
<defs>
<filter id="filter0_ii_18590_1321" x="1.85529" y="0.5625" width="28.875" height="28.875" filterUnits="userSpaceOnUse" color-interpolation-filters="sRGB">
<feFlood flood-opacity="0" result="BackgroundImageFix"/>
<feBlend mode="normal" in="SourceGraphic" in2="BackgroundImageFix" result="shape"/>
<feColorMatrix in="SourceAlpha" type="matrix" values="0 0 0 0 0 0 0 0 0 0 0 0 0 0 0 0 0 0 127 0" result="hardAlpha"/>
<feOffset dx="1" dy="-1"/>
<feGaussianBlur stdDeviation="1.5"/>
<feComposite in2="hardAlpha" operator="arithmetic" k2="-1" k3="1"/>
<feColorMatrix type="matrix" values="0 0 0 0 0.188235 0 0 0 0 0.470588 0 0 0 0 0.843137 0 0 0 1 0"/>
<feBlend mode="normal" in2="shape" result="effect1_innerShadow_18590_1321"/>
<feColorMatrix in="SourceAlpha" type="matrix" values="0 0 0 0 0 0 0 0 0 0 0 0 0 0 0 0 0 0 127 0" result="hardAlpha"/>
<feOffset dy="-1"/>
<feGaussianBlur stdDeviation="1.5"/>
<feComposite in2="hardAlpha" operator="arithmetic" k2="-1" k3="1"/>
<feColorMatrix type="matrix" values="0 0 0 0 0.27451 0 0 0 0 0.34902 0 0 0 0 0.8 0 0 0 1 0"/>
<feBlend mode="normal" in2="effect1_innerShadow_18590_1321" result="effect2_innerShadow_18590_1321"/>
</filter>
<filter id="filter1_f_18590_1321" x="25.2928" y="1.3125" width="5.5" height="28.375" filterUnits="userSpaceOnUse" color-interpolation-filters="sRGB">
<feFlood flood-opacity="0" result="BackgroundImageFix"/>
<feBlend mode="normal" in="SourceGraphic" in2="BackgroundImageFix" result="shape"/>
<feGaussianBlur stdDeviation="1" result="effect1_foregroundBlur_18590_1321"/>
</filter>
<filter id="filter2_f_18590_1321" x="2.56915" y="0.625" width="27.2812" height="5.5" filterUnits="userSpaceOnUse" color-interpolation-filters="sRGB">
<feFlood flood-opacity="0" result="BackgroundImageFix"/>
<feBlend mode="normal" in="SourceGraphic" in2="BackgroundImageFix" result="shape"/>
<feGaussianBlur stdDeviation="1" result="effect1_foregroundBlur_18590_1321"/>
</filter>
<filter id="filter3_f_18590_1321" x="4.79865" y="6.47559" width="21.9812" height="18.0488" filterUnits="userSpaceOnUse" color-interpolation-filters="sRGB">
<feFlood flood-opacity="0" result="BackgroundImageFix"/>
<feBlend mode="normal" in="SourceGraphic" in2="BackgroundImageFix" result="shape"/>
<feGaussianBlur stdDeviation="0.5" result="effect1_foregroundBlur_18590_1321"/>
</filter>
<filter id="filter4_ii_18590_1321" x="5.19864" y="7.07559" width="20.9812" height="17.0488" filterUnits="userSpaceOnUse" color-interpolation-filters="sRGB">
<feFlood flood-opacity="0" result="BackgroundImageFix"/>
<feBlend mode="normal" in="SourceGraphic" in2="BackgroundImageFix" result="shape"/>
<feColorMatrix in="SourceAlpha" type="matrix" values="0 0 0 0 0 0 0 0 0 0 0 0 0 0 0 0 0 0 127 0" result="hardAlpha"/>
<feOffset dx="-0.6" dy="0.6"/>
<feGaussianBlur stdDeviation="0.5"/>
<feComposite in2="hardAlpha" operator="arithmetic" k2="-1" k3="1"/>
<feColorMatrix type="matrix" values="0 0 0 0 0.866667 0 0 0 0 0.819608 0 0 0 0 0.941176 0 0 0 1 0"/>
<feBlend mode="normal" in2="shape" result="effect1_innerShadow_18590_1321"/>
<feColorMatrix in="SourceAlpha" type="matrix" values="0 0 0 0 0 0 0 0 0 0 0 0 0 0 0 0 0 0 127 0" result="hardAlpha"/>
<feOffset dx="0.4" dy="-0.4"/>
<feGaussianBlur stdDeviation="0.5"/>
<feComposite in2="hardAlpha" operator="arithmetic" k2="-1" k3="1"/>
<feColorMatrix type="matrix" values="0 0 0 0 1 0 0 0 0 0.988235 0 0 0 0 1 0 0 0 1 0"/>
<feBlend mode="normal" in2="effect1_innerShadow_18590_1321" result="effect2_innerShadow_18590_1321"/>
</filter>
<linearGradient id="paint0_linear_18590_1321" x1="15.7928" y1="5.13701" x2="15.7928" y2="38.3897" gradientUnits="userSpaceOnUse">
<stop stop-color="#5CB7FF"/>
<stop offset="1" stop-color="#4878DD"/>
</linearGradient>
<radialGradient id="paint1_radial_18590_1321" cx="0" cy="0" r="1" gradientUnits="userSpaceOnUse" gradientTransform="translate(27.5115 3.65625) rotate(136.771) scale(2.14444 2.50466)">
<stop stop-color="#7BD7FF"/>
<stop offset="1" stop-color="#7BD7FF" stop-opacity="0"/>
</radialGradient>
<linearGradient id="paint2_linear_18590_1321" x1="28.5428" y1="4.0625" x2="28.5428" y2="26.9375" gradientUnits="userSpaceOnUse">
<stop stop-color="#7FD9FF"/>
<stop offset="1" stop-color="#639DF4"/>
</linearGradient>
<linearGradient id="paint3_linear_18590_1321" x1="28.2567" y1="3.62502" x2="2.7254" y2="3.62502" gradientUnits="userSpaceOnUse">
<stop stop-color="#7DD8FF"/>
<stop offset="1" stop-color="#5DB6FF"/>
</linearGradient>
</defs>
</svg>

<svg width="100%" height="100%" viewBox="0 0 32 32" xmlns="http://www.w3.org/2000/svg"><g filter="url(#a)"><rect width="27.875" height="27.875" x="1.855" y="1.563" fill="url(#b)" rx="3.6"/><rect width="27.875" height="27.875" x="1.855" y="1.563" fill="url(#c)" rx="3.6"/></g><g filter="url(#d)"><path stroke="url(#e)" stroke-linecap="round" stroke-width="1.5" d="M28.043 4.063v22.875"/></g><g filter="url(#f)"><path stroke="url(#g)" stroke-linecap="round" stroke-width="1.5" d="M5.32 3.375H27.1"/></g><g fill="#579FFF" filter="url(#h)"><path d="M25.634 11.35a.5.5 0 0 0 0-.707l-3.013-3.02a.5.5 0 0 0-.854.354v1.427a.1.1 0 0 1-.1.1h-1.5c-.164 0-.465.024-.725.046-1.95.165-3.754 1.253-4.692 3.071l-.274.533v.001c-.58 1.13-1.167 2.275-1.806 3.252-.784 1.2-1.414 1.766-1.841 1.907-.305.1-.792.161-1.324.184-.391.017-.7.012-.912.008l-.18-.002H6.3a.5.5 0 0 0-.5.5v2a.5.5 0 0 0 .5.5h2.153l.09.002q.11.002.277.003c.22.002.503 0 .817-.014.592-.025 1.42-.097 2.133-.332 1.494-.493 2.609-1.886 3.412-3.114.733-1.122 1.401-2.426 1.974-3.544l.26-.509c.426-.823 1.268-1.371 2.28-1.457a25 25 0 0 1 .459-.034l.022-.001h1.491a.1.1 0 0 1 .1.1v1.412a.5.5 0 0 0 .854.353z"/><path d="M19.442 21.464c.26.022.56.046.725.046h1.5a.1.1 0 0 1 .1.1v1.413a.5.5 0 0 0 .854.354l3.013-3.02a.5.5 0 0 0 0-.706l-3.013-3.02a.5.5 0 0 0-.854.353v1.426a.1.1 0 0 1-.1.1h-1.491l-.022-.001-.107-.007-.353-.027c-.851-.072-1.555-.438-2.01-1.043-.115-.153-.36-.164-.463-.002l-1.385 2.149a.24.24 0 0 0 .034.308 5.9 5.9 0 0 0 3.572 1.577M9.43 9.504c.165 0 .465.024.726.046 1.412.12 2.606.595 3.57 1.59a.47.47 0 0 1 .074.544c-.256.499-.79 1.519-1.205 2.197-.139.226-.456.202-.578-.033-.424-.824-1.103-1.223-2.114-1.309a25 25 0 0 0-.46-.034l-.022-.001H6.3a.5.5 0 0 1-.5-.5v-2a.5.5 0 0 1 .5-.5z"/></g><g fill="#FCF2FF" filter="url(#i)"><path d="M25.634 11.35a.5.5 0 0 0 0-.707l-3.013-3.02a.5.5 0 0 0-.854.354v1.427a.1.1 0 0 1-.1.1h-1.5c-.164 0-.465.024-.725.046-1.95.165-3.754 1.253-4.692 3.071l-.274.533v.001c-.58 1.13-1.167 2.275-1.806 3.252-.784 1.2-1.414 1.766-1.841 1.907-.305.1-.792.161-1.324.184-.391.017-.7.012-.912.008l-.18-.002H6.3a.5.5 0 0 0-.5.5v2a.5.5 0 0 0 .5.5h2.153l.09.002q.11.002.277.003c.22.002.503 0 .817-.014.592-.025 1.42-.097 2.133-.332 1.494-.493 2.609-1.886 3.412-3.114.733-1.122 1.401-2.426 1.974-3.544l.26-.509c.426-.823 1.268-1.371 2.28-1.457a25 25 0 0 1 .459-.034l.022-.001h1.491a.1.1 0 0 1 .1.1v1.412a.5.5 0 0 0 .854.353z"/><path d="M19.442 21.464c.26.022.56.046.725.046h1.5a.1.1 0 0 1 .1.1v1.413a.5.5 0 0 0 .854.354l3.013-3.02a.5.5 0 0 0 0-.706l-3.013-3.02a.5.5 0 0 0-.854.353v1.426a.1.1 0 0 1-.1.1h-1.491l-.022-.001-.107-.007-.353-.027c-.851-.072-1.555-.438-2.01-1.043-.115-.153-.36-.164-.463-.002l-1.385 2.149a.24.24 0 0 0 .034.308 5.9 5.9 0 0 0 3.572 1.577M9.43 9.504c.165 0 .465.024.726.046 1.412.12 2.606.595 3.57 1.59a.47.47 0 0 1 .074.544c-.256.499-.79 1.519-1.205 2.197-.139.226-.456.202-.578-.033-.424-.824-1.103-1.223-2.114-1.309a25 25 0 0 0-.46-.034l-.022-.001H6.3a.5.5 0 0 1-.5-.5v-2a.5.5 0 0 1 .5-.5z"/></g><defs><filter id="a" width="28.875" height="28.875" x="1.855" y=".563" color-interpolation-filters="sRGB" filterUnits="userSpaceOnUse"><feFlood flood-opacity="0" result="BackgroundImageFix"/><feBlend in="SourceGraphic" in2="BackgroundImageFix" result="shape"/><feColorMatrix in="SourceAlpha" result="hardAlpha" values="0 0 0 0 0 0 0 0 0 0 0 0 0 0 0 0 0 0 127 0"/><feOffset dx="1" dy="-1"/><feGaussianBlur stdDeviation="1.5"/><feComposite in2="hardAlpha" k2="-1" k3="1" operator="arithmetic"/><feColorMatrix values="0 0 0 0 0.188235 0 0 0 0 0.470588 0 0 0 0 0.843137 0 0 0 1 0"/><feBlend in2="shape" result="effect1_innerShadow_18590_1321"/><feColorMatrix in="SourceAlpha" result="hardAlpha" values="0 0 0 0 0 0 0 0 0 0 0 0 0 0 0 0 0 0 127 0"/><feOffset dy="-1"/><feGaussianBlur stdDeviation="1.5"/><feComposite in2="hardAlpha" k2="-1" k3="1" operator="arithmetic"/><feColorMatrix values="0 0 0 0 0.27451 0 0 0 0 0.34902 0 0 0 0 0.8 0 0 0 1 0"/><feBlend in2="effect1_innerShadow_18590_1321" result="effect2_innerShadow_18590_1321"/></filter><filter id="d" width="5.5" height="28.375" x="25.293" y="1.313" color-interpolation-filters="sRGB" filterUnits="userSpaceOnUse"><feFlood flood-opacity="0" result="BackgroundImageFix"/><feBlend in="SourceGraphic" in2="BackgroundImageFix" result="shape"/><feGaussianBlur result="effect1_foregroundBlur_18590_1321" stdDeviation="1"/></filter><filter id="f" width="27.281" height="5.5" x="2.569" y=".625" color-interpolation-filters="sRGB" filterUnits="userSpaceOnUse"><feFlood flood-opacity="0" result="BackgroundImageFix"/><feBlend in="SourceGraphic" in2="BackgroundImageFix" result="shape"/><feGaussianBlur result="effect1_foregroundBlur_18590_1321" stdDeviation="1"/></filter><filter id="h" width="21.981" height="18.049" x="4.799" y="6.476" color-interpolation-filters="sRGB" filterUnits="userSpaceOnUse"><feFlood flood-opacity="0" result="BackgroundImageFix"/><feBlend in="SourceGraphic" in2="BackgroundImageFix" result="shape"/><feGaussianBlur result="effect1_foregroundBlur_18590_1321" stdDeviation=".5"/></filter><filter id="i" width="20.981" height="17.049" x="5.199" y="7.076" color-interpolation-filters="sRGB" filterUnits="userSpaceOnUse"><feFlood flood-opacity="0" result="BackgroundImageFix"/><feBlend in="SourceGraphic" in2="BackgroundImageFix" result="shape"/><feColorMatrix in="SourceAlpha" result="hardAlpha" values="0 0 0 0 0 0 0 0 0 0 0 0 0 0 0 0 0 0 127 0"/><feOffset dx="-.6" dy=".6"/><feGaussianBlur stdDeviation=".5"/><feComposite in2="hardAlpha" k2="-1" k3="1" operator="arithmetic"/><feColorMatrix values="0 0 0 0 0.866667 0 0 0 0 0.819608 0 0 0 0 0.941176 0 0 0 1 0"/><feBlend in2="shape" result="effect1_innerShadow_18590_1321"/><feColorMatrix in="SourceAlpha" result="hardAlpha" values="0 0 0 0 0 0 0 0 0 0 0 0 0 0 0 0 0 0 127 0"/><feOffset dx=".4" dy="-.4"/><feGaussianBlur stdDeviation=".5"/><feComposite in2="hardAlpha" k2="-1" k3="1" operator="arithmetic"/><feColorMatrix values="0 0 0 0 1 0 0 0 0 0.988235 0 0 0 0 1 0 0 0 1 0"/><feBlend in2="effect1_innerShadow_18590_1321" result="effect2_innerShadow_18590_1321"/></filter><linearGradient id="b" x1="15.793" x2="15.793" y1="5.137" y2="38.39" gradientUnits="userSpaceOnUse"><stop stop-color="#5CB7FF"/><stop offset="1" stop-color="#4878DD"/></linearGradient><linearGradient id="e" x1="28.543" x2="28.543" y1="4.063" y2="26.938" gradientUnits="userSpaceOnUse"><stop stop-color="#7FD9FF"/><stop offset="1" stop-color="#639DF4"/></linearGradient><linearGradient id="g" x1="28.257" x2="2.725" y1="3.625" y2="3.625" gradientUnits="userSpaceOnUse"><stop stop-color="#7DD8FF"/><stop offset="1" stop-color="#5DB6FF"/></linearGradient><radialGradient id="c" cx="0" cy="0" r="1" gradientTransform="matrix(-1.56249 1.46876 -1.71548 -1.82495 27.512 3.656)" gradientUnits="userSpaceOnUse"><stop stop-color="#7BD7FF"/><stop offset="1" stop-color="#7BD7FF" stop-opacity="0"/></radialGradient></defs></svg>
